Origami/22x22/apps/google-agenda.svg

<svg width="22" height="22" version="1" xmlns="http://www.w3.org/2000/svg">
 <path d="m1 4.5v16c0 0.554 0.446 1 1 1h18c0.554 0 1-0.446 1-1v-16z" style="opacity:.2"/>
 <path d="m1 4v16c0 0.554 0.446 1 1 1h18c0.554 0 1-0.446 1-1v-16z" style="fill:#4384f1"/>
 <path d="m21 4.4995559v-2c0-0.554-0.446-1-1-1h-18c-0.554 0-1 0.446-1 1v2z" style="opacity:.2"/>
 <path d="m21 4v-2c0-0.554-0.446-1-1-1h-18c-0.554 0-1 0.446-1 1v2z" style="fill:#cccccc"/>
 <path d="m2 1c-0.554 0-1 0.446-1 1v0.5c0-0.554 0.446-1 1-1h18c0.554 0 1 0.446 1 1v-0.5c0-0.554-0.446-1-1-1z" style="fill:#ffffff;opacity:.2"/>
 <path d="m13.980469 8.4995567-1.980469 0.5v1l1.992188-0.5v7.0000003h-1.992188v1h5v-1h-2v-8.0000003zm-7.4570315 2e-3c-0.443085 0.008236-0.8146176 0.042922-1.0234375 0.042922v1c0.5824601 0 1.5161208-0.109293 2.2714844 0.05078 0.3776818 0.08004 0.6858581 0.219927 0.8886718 0.4257813 0.202814 0.205854 0.3398438 0.482988 0.3398438 1 0 0.550717-0.1099107 0.877997-0.2421875 1.074219s-0.2942027 0.294693-0.5253906 0.363281c-0.3695905 0.109651-0.8959674 0.05341-1.3847657 0.0332-0.093116-0.0023-0.2436314-0.0317-0.3164062-0.0293-0.068836 0.0023-0.1272475 0.0055-0.1816406 0.01172-0.027197 0.0031-0.052918 0.0069-0.085937 0.01367-0.033021 0.0067-0.04854-0.01538-0.1894531 0.07422-0.017614 0.0112-0.062192 0.04465-0.0625 0.04492-3.086e-4 2.69e-4 -0.07989 0.08958-0.080078 0.08984-1.885e-4 2.67e-4 -0.076104 0.165751-0.076172 0.166015-6.77e-5 2.64e-4 -0.00591 0.226302-0.00586 0.226563 5.44e-5 2.61e-4 0.077947 0.181383 0.078125 0.18164 1.775e-4 2.57e-4 0.091495 0.09936 0.091797 0.09961 3.018e-4 2.53e-4 0.050236 0.0391 0.070313 0.05078s0.038091 0.01895 0.052734 0.02539c0.1171446 0.05152 0.1352352 0.04107 0.1679688 0.04492 0.065467 0.0077 0.1166458 0.0078 0.1894531 0.0078 0.069136 0 0.2451338-0.01953 0.3339844-0.01367 0.2033636 0.0065 0.4099531 0.0056 0.6875 0.06445 0.387144 0.08204 0.7825183 0.2357 1.0488281 0.458985 0.2663096 0.223315 0.4296873 0.485481 0.4296873 0.96878 0 0.500154-0.148152 0.762308-0.3925781 0.976562-0.2444261 0.214255-0.6268202 0.364306-1.0742188 0.447266-0.8947971 0.165918-1.9507447 0.054687-2.5332031 0.054687v1c0.4176416 0 1.611469 0.134642 2.7167969-0.07031 0.5526639-0.102478 1.1076668-0.29127 1.5507811-0.679688 0.443115-0.388421 0.732422-0.992421 0.732422-1.728517 0-0.752952-0.334616-1.356941-0.787109-1.736328-0.08403-0.07046-0.186056-0.0671-0.275391-0.125 0.229891-0.133901 0.482211-0.216308 0.648438-0.462891 0.273994-0.406451 0.414062-0.947274 0.414062-1.632813 0-0.719242-0.237948-1.3063063-0.628906-1.7031253-0.3909585-0.396818-0.8952227-0.595774-1.3925784-0.701171-0.4973557-0.105399-1.0119931-0.123518-1.4550781-0.115235z" style="opacity:.2"/>
 <path d="m13.980469 7.9999997-1.980469 0.5v1l1.992188-0.5v7.0000003h-1.992188v1h5v-1h-2v-8.0000003zm-7.4570315 2e-3c-0.443085 0.008236-0.8146176 0.042922-1.0234375 0.042922v1c0.5824601 0 1.5161208-0.109293 2.2714844 0.05078 0.3776818 0.08004 0.6858581 0.219927 0.8886718 0.425781 0.202814 0.205854 0.3398438 0.4829883 0.3398438 1.0000003 0 0.550717-0.1099107 0.877997-0.2421875 1.074219s-0.2942027 0.294693-0.5253906 0.363281c-0.3695905 0.109651-0.8959674 0.05341-1.3847657 0.0332-0.093116-0.0023-0.2436314-0.0317-0.3164062-0.0293-0.068836 0.0023-0.1272475 0.0055-0.1816406 0.01172-0.027197 0.0031-0.052918 0.0069-0.085937 0.01367-0.033021 0.0067-0.04854-0.01538-0.1894531 0.07422-0.017614 0.0112-0.062192 0.04465-0.0625 0.04492-3.086e-4 2.69e-4 -0.07989 0.08958-0.080078 0.08984-1.885e-4 2.67e-4 -0.076104 0.165751-0.076172 0.166015-6.77e-5 2.64e-4 -0.00591 0.226302-0.00586 0.226563 5.44e-5 2.61e-4 0.077947 0.181383 0.078125 0.18164 1.775e-4 2.57e-4 0.091495 0.09936 0.091797 0.09961 3.018e-4 2.53e-4 0.050236 0.0391 0.070313 0.05078s0.038091 0.01895 0.052734 0.02539c0.1171446 0.05152 0.1352352 0.04107 0.1679688 0.04492 0.0654667 0.007739 0.1166456 0.007829 0.1894529 0.007829 0.069136 0 0.2451338-0.01953 0.3339844-0.01367 0.2033636 0.0065 0.4099531 0.0056 0.6875 0.06445 0.387144 0.08204 0.7825183 0.2357 1.0488281 0.458985 0.2663098 0.223286 0.4296875 0.485452 0.4296875 0.968751 0 0.500154-0.148152 0.762308-0.3925781 0.976562-0.2444261 0.214255-0.6268202 0.364306-1.0742188 0.447266-0.8947971 0.165918-1.9507447 0.054687-2.5332031 0.054687v1c0.4176416 0 1.611469 0.134642 2.7167969-0.07031 0.5526639-0.102478 1.1076668-0.29127 1.5507811-0.679688 0.443115-0.388421 0.732422-0.992421 0.732422-1.728517 0-0.752952-0.334616-1.356941-0.787109-1.736328-0.08403-0.07046-0.186056-0.0671-0.275391-0.125 0.229891-0.133901 0.482211-0.216308 0.648438-0.462891 0.273994-0.406451 0.414062-0.947274 0.414062-1.632813 0-0.7192423-0.237948-1.3063063-0.628906-1.7031253-0.3909585-0.396818-0.8952227-0.595774-1.3925784-0.701171-0.4973557-0.105399-1.0119931-0.1235181-1.4550781-0.115235z" style="fill:#ffffff"/>
</svg>

<svg xmlns="http://www.w3.org/2000/svg" width="22" height="22" version="1">
 <path style="opacity:0.2" d="m 1,4.5 v 16 c 0,0.554 0.446,1 1,1 h 18 c 0.554,0 1,-0.446 1,-1 v -16 z"/>
 <path style="fill:#4384f1" d="m 1,4 v 16 c 0,0.554 0.446,1 1,1 h 18 c 0.554,0 1,-0.446 1,-1 V 4 Z"/>
 <path style="opacity:0.2" d="m 21,4.4995559 v -2 c 0,-0.554 -0.446,-1 -1,-1 H 2 c -0.554,0 -1,0.446 -1,1 v 2 z"/>
 <path style="fill:#cccccc" d="M 21,4 V 2 C 21,1.446 20.554,1 20,1 H 2 C 1.446,1 1,1.446 1,2 v 2 z"/>
 <path style="opacity:0.2;fill:#ffffff" d="M 2,1 C 1.446,1 1,1.446 1,2 v 0.5 c 0,-0.554 0.446,-1 1,-1 h 18 c 0.554,0 1,0.446 1,1 V 2 C 21,1.446 20.554,1 20,1 Z"/>
 <path style="opacity:0.2" d="M 13.980469,8.4995567 12,8.9995567 v 1 l 1.992188,-0.5 V 16.499557 H 12 v 1 h 5 v -1 H 15 V 8.4995567 Z m -7.4570315,0.002 C 6.0803525,8.5097927 5.7088199,8.5444787 5.5,8.5444787 v 1 c 0.5824601,0 1.5161208,-0.109293 2.2714844,0.05078 0.3776818,0.08004 0.6858581,0.219927 0.8886718,0.4257813 C 8.8629702,10.226894 9,10.504028 9,11.02104 c 0,0.550717 -0.1099107,0.877997 -0.2421875,1.074219 -0.1322768,0.196222 -0.2942027,0.294693 -0.5253906,0.363281 -0.3695905,0.109651 -0.8959674,0.05341 -1.3847657,0.0332 -0.093116,-0.0023 -0.2436314,-0.0317 -0.3164062,-0.0293 -0.068836,0.0023 -0.1272475,0.0055 -0.1816406,0.01172 -0.027197,0.0031 -0.052918,0.0069 -0.085937,0.01367 -0.033021,0.0067 -0.04854,-0.01538 -0.1894531,0.07422 -0.017614,0.0112 -0.062192,0.04465 -0.0625,0.04492 -3.086e-4,2.69e-4 -0.07989,0.08958 -0.080078,0.08984 -1.885e-4,2.67e-4 -0.076104,0.165751 -0.076172,0.166015 -6.77e-5,2.64e-4 -0.00591,0.226302 -0.00586,0.226563 5.44e-5,2.61e-4 0.077947,0.181383 0.078125,0.18164 1.775e-4,2.57e-4 0.091495,0.09936 0.091797,0.09961 3.018e-4,2.53e-4 0.050236,0.0391 0.070313,0.05078 0.020077,0.01168 0.038091,0.01895 0.052734,0.02539 0.1171446,0.05152 0.1352352,0.04107 0.1679688,0.04492 0.065467,0.0077 0.1166458,0.0078 0.1894531,0.0078 0.069136,0 0.2451338,-0.01953 0.3339844,-0.01367 0.2033636,0.0065 0.4099531,0.0056 0.6875,0.06445 0.387144,0.08204 0.7825183,0.2357 1.0488281,0.458985 C 8.8366223,14.232608 9,14.494774 9,14.978073 9,15.478227 8.851848,15.740381 8.6074219,15.954635 8.3629958,16.16889 7.9806017,16.318941 7.5332031,16.401901 6.638406,16.567819 5.5824584,16.456588 5,16.456588 v 1 c 0.4176416,0 1.611469,0.134642 2.7167969,-0.07031 C 8.2694608,17.2838 8.8244637,17.095008 9.267578,16.70659 9.710693,16.318169 10,15.714169 10,14.978073 10,14.225121 9.665384,13.621132 9.212891,13.241745 9.128861,13.171285 9.026835,13.174645 8.9375,13.116745 9.167391,12.982844 9.419711,12.900437 9.585938,12.653854 9.859932,12.247403 10,11.70658 10,11.021041 10,10.301799 9.762052,9.7147347 9.371094,9.3179157 8.9801355,8.9210977 8.4758713,8.7221417 7.9785156,8.6167447 7.4811599,8.5113457 6.9665225,8.4932267 6.5234375,8.5015097 Z"/>
 <path style="fill:#ffffff" d="M 13.980469,7.9999997 12,8.4999997 v 1 l 1.992188,-0.5 V 16 H 12 v 1 h 5 V 16 H 15 V 7.9999997 Z m -7.4570315,0.002 C 6.0803525,8.0102357 5.7088199,8.0449217 5.5,8.0449217 v 1 c 0.5824601,0 1.5161208,-0.109293 2.2714844,0.05078 0.3776818,0.08004 0.6858581,0.219927 0.8886718,0.425781 C 8.8629702,9.7273367 9,10.004471 9,10.521483 9,11.0722 8.8900893,11.39948 8.7578125,11.595702 c -0.1322768,0.196222 -0.2942027,0.294693 -0.5253906,0.363281 -0.3695905,0.109651 -0.8959674,0.05341 -1.3847657,0.0332 -0.093116,-0.0023 -0.2436314,-0.0317 -0.3164062,-0.0293 -0.068836,0.0023 -0.1272475,0.0055 -0.1816406,0.01172 -0.027197,0.0031 -0.052918,0.0069 -0.085937,0.01367 -0.033021,0.0067 -0.04854,-0.01538 -0.1894531,0.07422 -0.017614,0.0112 -0.062192,0.04465 -0.0625,0.04492 -3.086e-4,2.69e-4 -0.07989,0.08958 -0.080078,0.08984 -1.885e-4,2.67e-4 -0.076104,0.165751 -0.076172,0.166015 -6.77e-5,2.64e-4 -0.00591,0.226302 -0.00586,0.226563 5.44e-5,2.61e-4 0.077947,0.181383 0.078125,0.18164 1.775e-4,2.57e-4 0.091495,0.09936 0.091797,0.09961 3.018e-4,2.53e-4 0.050236,0.0391 0.070313,0.05078 0.020077,0.01168 0.038091,0.01895 0.052734,0.02539 0.1171446,0.05152 0.1352352,0.04107 0.1679688,0.04492 C 6.3760138,12.99991 6.4271927,13 6.5,13 c 0.069136,0 0.2451338,-0.01953 0.3339844,-0.01367 0.2033636,0.0065 0.4099531,0.0056 0.6875,0.06445 0.387144,0.08204 0.7825183,0.2357 1.0488281,0.458985 C 8.8366223,13.733051 9,13.995217 9,14.478516 9,14.97867 8.851848,15.240824 8.6074219,15.455078 8.3629958,15.669333 7.9806017,15.819384 7.5332031,15.902344 6.638406,16.068262 5.5824584,15.957031 5,15.957031 v 1 c 0.4176416,0 1.611469,0.134642 2.7167969,-0.07031 C 8.2694608,16.784243 8.8244637,16.595451 9.267578,16.207033 9.710693,15.818612 10,15.214612 10,14.478516 10,13.725564 9.665384,13.121575 9.212891,12.742188 9.128861,12.671728 9.026835,12.675088 8.9375,12.617188 9.167391,12.483287 9.419711,12.40088 9.585938,12.154297 9.859932,11.747846 10,11.207023 10,10.521484 10,9.8022417 9.762052,9.2151777 9.371094,8.8183587 8.9801355,8.4215407 8.4758713,8.2225847 7.9785156,8.1171877 7.4811599,8.0117887 6.9665225,7.9936696 6.5234375,8.0019527 Z"/>
</svg>
